public/svg/black/nio.svg

<svg xmlns="http://www.w3.org/2000/svg" width="32" height="32" viewBox="0 0 32 32"><path d="M16,32 C7.163444,32 0,24.836556 0,16 C0,7.163444 7.163444,0 16,0 C24.836556,0 32,7.163444 32,16 C32,24.836556 24.836556,32 16,32 Z M16,13.7635025 L20.822112,13.7635025 L16,5.5 L11.177888,13.7635025 L16,13.7635025 Z M16.6548547,23.5 L26.5,23.5 L21.5811481,15.0597381 L19.1700921,19.1914894 L16.6548547,23.5 Z M12.8299079,19.1914894 L10.4188519,15.0597381 L5.5,23.5 L15.3451453,23.5 L12.8299079,19.1914894 Z"/></svg>

<svg xmlns="http://www.w3.org/2000/svg" width="32" height="32" viewBox="0 0 32 32"><path d="M16 32C7.163 32 0 24.837 0 16S7.163 0 16 0s16 7.163 16 16-7.163 16-16 16zm0-18.236h4.822L16 5.5l-4.822 8.264H16zm.655 9.736H26.5l-4.919-8.44-2.41 4.131-2.516 4.309zm-3.825-4.309l-2.411-4.131L5.5 23.5h9.845l-2.515-4.309z"/></svg>
